X: 20887
T: Jonny's Funky Fiddle
R: reel
M: 4/4
K: Dmajor
|:Ad d2 f2 ed|Befe gfed|Ad d2 f2 ed|Bdef dedB|
Ad d2 f2 ed|Befe gffg|af f2 ge e2|edce d3 d:|
|:Ad d2 edBd|Bd d2 edBd|Ad d2 edBd|gefd ed (3Bcd|
Ad d2 ed (3Bcd|Bd d2 ed (3Bcd|eg g2 fd d2|edce d3 d:|

